X: 7579
T: Cocktail, The
R: reel
M: 4/4
K: Cmajor
CEED ~E3D|CE~E2 GEDE|CEED EGAc|BGAF DEFD|
CEED ~E3D|CE~E2 GEDE|CEED (3EFG Ac|BGAF DEFD||
G3G GDFD|GD (3EFG AFDF|~G3^F GFGA|_BAB=F DEFD|
G2FD G2FD|GD (3EFG AFDF|Ggg^f ~g3=f|ecdB cAGE||

